packages/vibrant-icons/assets/icons/Bold/Fill.svg

<svg width="24" height="24" viewBox="0 0 24 24" fill="none" xmlns="http://www.w3.org/2000/svg">
<path fill-rule="evenodd" clip-rule="evenodd" d="M11.9455 2.75H5.25V21.25H13.35C15.1302 21.25 16.2865 20.8342 17.4915 19.964C18.776 19.0363 19.5689 17.551 19.4481 15.5135C19.3942 14.605 19.0247 13.5808 18.4592 12.9524C17.8802 12.3091 16.844 11.696 15.5927 11.4289C16.1178 11.1798 16.6565 10.8437 17.1229 10.4169C17.8745 9.72883 18.45 8.79198 18.45 7.6C18.45 6.1451 17.758 4.88651 16.5687 4.02714C15.4044 3.18592 13.8067 2.75 11.9455 2.75ZM7.45 10.75V4.95H11.9455C13.491 4.95 14.4286 5.25633 15.1142 5.75169C15.7857 6.23691 16.1723 6.91559 16.1723 7.6C16.1723 8.1429 16.0582 8.57632 15.854 8.93361C15.6494 9.29159 15.3457 9.58808 14.9441 9.84366C14.0882 10.3883 12.8392 10.75 11.05 10.75H7.45ZM7.45 19.05V12.95H11.05C13.3951 12.95 14.7303 13.136 15.645 13.6723C16.0897 13.933 16.411 14.2142 16.6213 14.5255C16.8293 14.8334 16.9368 15.1824 16.9368 15.5958C16.9368 16.2838 16.8194 16.781 16.643 17.1616C16.4669 17.5415 16.2251 17.8199 15.9541 18.0622C15.2969 18.6499 14.1092 19.05 13.1641 19.05H7.45Z" fill="#0C0C0C"/>
</svg>

<svg xmlns="http://www.w3.org/2000/svg" width="24" height="24" fill="none"><path fill="#0C0C0C" fill-rule="evenodd" d="M11.946 2.75H5.25v18.5h8.1c1.78 0 2.937-.416 4.141-1.286 1.285-.928 2.078-2.413 1.957-4.45-.054-.909-.423-1.933-.989-2.562-.579-.643-1.615-1.256-2.866-1.523a6.2 6.2 0 0 0 1.53-1.012c.752-.688 1.327-1.625 1.327-2.817 0-1.455-.692-2.713-1.881-3.573-1.165-.841-2.762-1.277-4.623-1.277m-4.496 8v-5.8h4.495c1.546 0 2.484.306 3.17.802.67.485 1.057 1.164 1.057 1.848 0 .543-.114.976-.318 1.334s-.508.654-.91.91c-.856.544-2.105.906-3.894.906zm0 8.3v-6.1h3.6c2.345 0 3.68.186 4.595.722.445.261.766.542.976.853.208.308.316.657.316 1.07 0 .689-.118 1.186-.294 1.567-.176.38-.418.658-.689.9-.657.588-1.845.988-2.79.988z" clip-rule="evenodd"/></svg>
